X:5
T: Farnaught
S: B.Breathnach:"Ceol Rince na hEireann" IV/1 (gan ainm)
Z: B.Black
L: 1/8
M: 6/8
R: jig
K: D
A|d3 d/e/fd|dBd dDd|dd/d/c dfa|gee efg|
fed d/e/fd|dBd dDd|dd/d/c dfa|gec d2 ||
g|fdf a2g|fdf a2f|gee e2f|gee eag|
fff geg|fed dBA|AFA d2e|fdd d2 ||
a|d'2a afd|d'2 a afd|fed f/g/ad|fee e2a|
d'2a afd|d'2a afd|df/e/d/c/ dBA|Bdd d2 ||
